actions/16/games-solve.svg

<svg xmlns="http://www.w3.org/2000/svg" viewBox="0 0 16 16">
  <defs id="defs3051">
    <style type="text/css" id="current-color-scheme">
      .ColorScheme-Text {
        color:#808080;
      }
      </style>
  </defs>
 <path style="fill:currentColor;fill-opacity:1;stroke:none" 
     d="m8 2c-3.314 0-6 2.686-6 6 0 3.314 2.686 6 6 6 3.314 0 6-2.686 6-6 0-3.314-2.686-6-6-6m0 1c1.713 0 3.222.865 4.123 2.178l-4.662 4.49-2.77-2.668-.691.666 3.461 3.334.693-.666 4.449-4.287c.255.6.396 1.26.396 1.953 0 2.761-2.239 5-5 5-2.761 0-5-2.239-5-5 0-2.761 2.239-5 5-5"
     class="ColorScheme-Text"
     />
</svg>

<svg xmlns="http://www.w3.org/2000/svg" version="1.1" viewBox="0 0 16 16">
 <defs>
  <style id="current-color-scheme" type="text/css">
   .ColorScheme-Text { color:#808080; }
  </style>
 </defs>
 <path class="ColorScheme-Text" d="M 8,2 C 4.686,2 2,4.686 2,8 2,11.314 4.686,14 8,14 11.314,14 14,11.314 14,8 14,4.686 11.314,2 8,2 M 8,3 C 9.713,3 11.222,3.865 12.123,5.178 L 7.461,9.668 4.691,7 4,7.666 7.461,11 8.154,10.334 12.603,6.047 C 12.858,6.647 12.999,7.307 12.999,8 12.999,10.761 10.76,13 7.999,13 5.238,13 2.999,10.761 2.999,8 2.999,5.239 5.238,3 7.999,3" style="color:#808080;fill:currentColor"/>
</svg>
